dealnox/img/sprite/icon-FAQ.svg

<svg width="21" height="21" viewBox="0 0 21 21" fill="none" xmlns="http://www.w3.org/2000/svg">
<g clip-path="url(#clip0_666_684)">
<path d="M11.8205 0C12.1078 0.00559428 12.3952 0.0112662 12.6827 0.0170158C13.3013 0.0298361 13.9227 0.0121208 14.5382 0.0636349C15.6472 0.155474 16.6724 0.527494 17.6083 1.12422C19.4694 2.3109 20.5482 4.02345 20.9444 6.17282C21.0112 6.53599 20.9991 6.91593 20.9995 7.28795C21.0009 8.16952 20.9953 9.05131 20.9776 9.93265C20.9687 10.3669 20.8472 10.7848 20.7087 11.193C19.7509 14.0188 17.7732 15.7004 14.8697 16.3013C14.3149 16.416 13.7314 16.4122 13.1604 16.4194C12.8495 16.4234 12.636 16.509 12.4218 16.7435C11.3603 17.9064 10.2787 19.0511 9.20057 20.1986C9.0305 20.3795 8.83825 20.5399 8.66328 20.7173C8.21429 21.1755 7.1425 21.0853 6.7692 20.3933C6.64936 20.1709 6.57157 19.9534 6.57484 19.6907C6.58862 18.638 6.57997 17.5854 6.57951 16.5327V16.3889C6.46504 16.3656 6.35314 16.3397 6.24031 16.319C4.48827 16.0176 3.01538 15.209 1.83194 13.888C0.873684 12.8186 0.298315 11.5615 0.0700818 10.1462C0.0404138 9.96295 0.0376105 9.77531 0.0233606 9.58976C0.0147172 9.47788 0.0079426 9.36576 0 9.25387V7.08609C0.0107459 6.92292 0.0158834 6.76116 0.0331702 6.59962C0.111938 5.88438 0.299992 5.18539 0.59079 4.52694C1.30189 2.89527 2.44586 1.65987 4.02713 0.839142C5.09341 0.27886 6.28428 -0.0034567 7.48917 0.0184144C7.73352 0.0221439 7.97834 0.00652666 8.22293 0H11.8205ZM7.8842 19.6527L7.94283 19.6846C7.95722 19.6531 7.97493 19.6232 7.99563 19.5954C8.17434 19.4005 8.35491 19.2075 8.53502 19.014C9.7085 17.7535 10.8815 16.4925 12.0541 15.2311C12.0788 15.2021 12.1098 15.1791 12.1447 15.1637C12.1796 15.1483 12.2175 15.141 12.2557 15.1423C12.571 15.1388 12.8864 15.1302 13.2013 15.119C13.832 15.0978 14.4665 15.0924 15.079 14.9288C16.9986 14.416 18.3925 13.265 19.223 11.458C19.5266 10.796 19.7042 10.0988 19.6981 9.36156C19.6927 8.69375 19.7049 8.02546 19.7 7.35695C19.6979 7.05066 19.7035 6.73971 19.6533 6.43925C19.4017 4.91481 18.6831 3.64421 17.4868 2.66311C16.5017 1.85544 15.3808 1.35894 14.0811 1.35498C11.8895 1.3483 9.69807 1.34597 7.50669 1.34799C7.17614 1.34799 6.83881 1.32678 6.5162 1.38272C4.33129 1.7615 2.76917 2.97359 1.8268 4.96702C1.52755 5.60011 1.32852 6.27236 1.32945 6.98796C1.32945 7.58981 1.32058 8.19213 1.32945 8.79398C1.33623 9.2322 1.31427 9.67974 1.39533 10.1061C1.72027 11.8142 2.61218 13.1622 4.07852 14.1153C5.01949 14.7272 6.05763 15.0442 7.17777 15.1018C7.406 15.1134 7.63378 15.1314 7.88303 15.1484L7.8842 19.6527Z" fill="#968E8E"/>
<path d="M9.89126 9.86181C9.89126 9.57114 9.87677 9.29212 9.89406 9.01497C9.94475 8.20776 10.4036 7.67188 11.0796 7.28867C11.3265 7.14881 11.5791 7.01851 11.8236 6.87446C12.2603 6.61805 12.4009 6.15676 12.1883 5.69733C12.0869 5.47845 11.8986 5.35678 11.684 5.27193C11.3303 5.13207 10.9609 5.09897 10.5834 5.11599C9.87794 5.14746 9.28645 5.43859 8.76388 5.89383C8.64404 5.99825 8.5221 6.10058 8.39011 6.21317L7.2417 4.85469C7.50671 4.54554 7.81478 4.2759 8.1565 4.05401C8.71973 3.69248 9.32453 3.41346 9.99288 3.35333C10.486 3.3088 10.9873 3.3426 11.4845 3.35566C11.915 3.36708 12.3173 3.49715 12.7043 3.68199C13.5647 4.0927 14.0177 4.7815 14.1078 5.71854C14.1676 6.3409 14.0611 6.92714 13.6986 7.44927C13.4787 7.76558 13.1727 7.98702 12.8443 8.17793C12.5586 8.34412 12.2652 8.49727 11.9823 8.66743C11.8435 8.75358 11.7127 8.85179 11.5912 8.96089C11.3737 9.1518 11.2434 9.39538 11.1908 9.68046C11.1572 9.86227 11.1551 9.86181 10.9651 9.86181H9.89243H9.89126Z" fill="#968E8E"/>
<path d="M11.4663 12.1599C11.5223 12.7513 10.939 13.134 10.5029 13.1224C9.95882 13.1077 9.5785 12.694 9.56098 12.135C9.54136 11.5073 10.1069 11.1723 10.5087 11.1758C11.0572 11.1805 11.47 11.608 11.4663 12.1599Z" fill="#968E8E"/>
</g>
<defs>
<clipPath id="clip0_666_684">
<rect width="21" height="21" fill="white"/>
</clipPath>
</defs>
</svg>

<svg width="21" height="21" fill="none" xmlns="http://www.w3.org/2000/svg"><g clip-path="url(#clip0_666_684)" fill="#968E8E"><path d="M11.82 0l.863.017c.618.013 1.24-.005 1.855.047 1.11.091 2.134.463 3.07 1.06 1.861 1.187 2.94 2.9 3.336 5.049.067.363.055.743.056 1.115 0 .882-.005 1.763-.022 2.645-.01.434-.13.852-.27 1.26-.957 2.826-2.935 4.507-5.838 5.108-.555.115-1.139.111-1.71.118-.31.004-.524.09-.738.325-1.062 1.162-2.143 2.307-3.221 3.455-.17.18-.363.34-.538.518-.449.459-1.52.368-1.894-.324-.12-.222-.197-.44-.194-.702.014-1.053.005-2.106.005-3.158v-.144c-.115-.023-.227-.05-.34-.07-1.752-.301-3.225-1.11-4.408-2.431C.874 12.818.298 11.562.07 10.146c-.03-.183-.032-.37-.047-.556L0 9.254V7.086c.01-.163.016-.325.033-.486a7.037 7.037 0 0 1 .558-2.073C1.3 2.895 2.446 1.66 4.027.839A7.164 7.164 0 0 1 7.49.02c.245.003.49-.012.734-.019h3.597zM7.884 19.653l.059.032a.491.491 0 0 1 .053-.09c.178-.194.359-.387.539-.581 1.174-1.26 2.347-2.521 3.52-3.783a.253.253 0 0 1 .2-.089c.316-.003.631-.012.946-.023.631-.021 1.265-.027 1.878-.19 1.92-.513 3.313-1.664 4.144-3.471.304-.662.481-1.36.475-2.096-.005-.668.007-1.337.002-2.005-.002-.306.003-.617-.047-.918-.251-1.524-.97-2.795-2.166-3.776-.985-.808-2.106-1.304-3.406-1.308-2.191-.007-4.383-.009-6.574-.007-.33 0-.668-.021-.99.035-2.186.379-3.748 1.59-4.69 3.584-.3.633-.498 1.305-.498 2.021 0 .602-.008 1.204 0 1.806.007.438-.015.886.066 1.312.325 1.708 1.217 3.056 2.684 4.01.94.611 1.979.928 3.099.986.228.011.456.03.705.046l.001 4.505z"/><path d="M9.891 9.862c0-.29-.014-.57.003-.847.05-.807.51-1.343 1.186-1.726.246-.14.5-.27.744-.415.436-.256.577-.717.364-1.177-.101-.219-.29-.34-.504-.425-.354-.14-.723-.173-1.1-.156-.706.031-1.298.323-1.82.778-.12.104-.242.207-.374.32l-1.148-1.36c.265-.308.573-.578.914-.8.564-.362 1.169-.64 1.837-.7.493-.045.994-.011 1.492.002.43.011.832.141 1.22.326.86.41 1.313 1.1 1.403 2.037.06.622-.047 1.208-.41 1.73-.22.317-.525.538-.854.729-.285.166-.579.32-.862.49-.138.086-.27.184-.39.293-.218.19-.349.434-.401.72-.034.181-.036.18-.226.18H9.892zM11.466 12.16c.056.591-.527.974-.963.962-.544-.014-.925-.428-.942-.987-.02-.628.546-.963.948-.96a.954.954 0 0 1 .957.985z"/></g><defs><clipPath id="clip0_666_684"><path fill="#fff" d="M0 0h21v21H0z"/></clipPath></defs></svg>
